public/cart.svg

<svg width="25" height="25" viewBox="0 0 25 25" fill="none" xmlns="http://www.w3.org/2000/svg">
<path d="M24.9511 3.65302H5.19317L5.15117 3.30202C5.06522 2.57243 4.71456 1.89975 4.16566 1.41149C3.61677 0.923238 2.9078 0.653357 2.17317 0.653015H0.951172V2.65302H2.17317C2.4181 2.65305 2.65451 2.74297 2.83754 2.90573C3.02058 3.06849 3.13751 3.29276 3.16617 3.53602L4.75117 17.004C4.83712 17.7336 5.18779 18.4063 5.73668 18.8945C6.28558 19.3828 6.99454 19.6527 7.72917 19.653H20.9511V17.653H7.72917C7.48408 17.653 7.24755 17.5629 7.0645 17.3999C6.88144 17.237 6.7646 17.0124 6.73617 16.769L6.60517 15.653H22.7871L24.9511 3.65302ZM21.1151 13.653H6.37017L5.42917 5.65302H22.5581L21.1151 13.653Z" fill="#253D4E"/>
<path d="M7.95117 24.653C9.05574 24.653 9.95117 23.7576 9.95117 22.653C9.95117 21.5484 9.05574 20.653 7.95117 20.653C6.8466 20.653 5.95117 21.5484 5.95117 22.653C5.95117 23.7576 6.8466 24.653 7.95117 24.653Z" fill="#253D4E"/>
<path d="M17.9512 24.653C19.0558 24.653 19.9512 23.7576 19.9512 22.653C19.9512 21.5484 19.0558 20.653 17.9512 20.653C16.8467 20.653 15.9512 21.5484 15.9512 22.653C15.9512 23.7576 16.8467 24.653 17.9512 24.653Z" fill="#253D4E"/>
</svg>

<svg xmlns="http://www.w3.org/2000/svg" width="25" height="25" fill="none"><path fill="#253D4E" d="M24.951 3.653H5.193l-.042-.351A3 3 0 0 0 2.173.653H.951v2h1.222a1 1 0 0 1 .993.883l1.585 13.468a3 3 0 0 0 2.978 2.649h13.222v-2H7.73a1 1 0 0 1-.993-.884l-.13-1.116h16.181zm-3.836 10H6.37l-.94-8h17.128zM7.951 24.653a2 2 0 1 0 0-4 2 2 0 0 0 0 4M17.951 24.653a2 2 0 1 0 0-4 2 2 0 0 0 0 4"/></svg>
